src/assets/flags/twd.svg

<svg xmlns="http://www.w3.org/2000/svg" width="28" height="28" fill="none"><defs/><path fill="#EC1E24" d="M28 0H0V28H28V0Z"/><path fill="#2B2F83" d="M21 0H0V14H21V0Z"/><path fill="#fff" d="M10.4961 9.61336C11.013 9.61336 11.5183 9.46009 11.948 9.17293 12.3778 8.88577 12.7128 8.47763 12.9106 8.0001 13.1083 7.52258 13.1601 6.99712 13.0593 6.49019 12.9584 5.98325 12.7095 5.5176 12.3441 5.15212 11.9786 4.78664 11.5129 4.53774 11.006 4.4369 10.499 4.33607 9.97359 4.38782 9.49607 4.58562 9.01854 4.78341 8.6104 5.11837 8.32324 5.54813 8.03608 5.97789 7.88281 6.48315 7.88281 7.00002 7.88281 7.69312 8.15815 8.35783 8.64824 8.84793 9.13834 9.33802 9.80305 9.61336 10.4961 9.61336zM11.1062 4.05162L10.492 1.76028 9.87695 4.05722C10.2819 3.97047 10.7004 3.96856 11.1062 4.05162zM9.55402 4.13932L7.87402 2.45932 8.49282 4.75999C8.79969 4.48175 9.16108 4.27038 9.55402 4.13932zM8.2513 4.99335L5.95996 4.37921 7.63996 6.05921C7.76781 5.66546 7.97598 5.30252 8.2513 4.99335zM7.54915 6.38495L5.25781 7.00002 7.55941 7.61415C7.47063 7.20958 7.46714 6.79095 7.54915 6.38495zM7.63703 7.9408L5.95703 9.6208 8.25397 9.00573C7.97697 8.69717 7.76691 8.33458 7.63703 7.9408zM8.49295 9.24002L7.87695 11.5351 9.55695 9.85509C9.16355 9.72589 8.80124 9.51645 8.49295 9.24002zM9.88281 9.9456L10.496 12.2369 11.112 9.94C10.7071 10.0272 10.2885 10.0291 9.88281 9.9456zM11.4375 9.85789L13.1175 11.5379 12.4996 9.24002C12.1922 9.51737 11.8305 9.72778 11.4375 9.85789zM12.7422 9.00389L15.0335 9.61802 13.3535 7.93802C13.2261 8.33197 13.0179 8.695 12.7422 9.00389zM13.4395 7.61322L15.7345 7.00002 13.4395 6.38309C13.5248 6.78869 13.5248 7.20762 13.4395 7.61322zM13.3562 6.05732L15.0362 4.37732 12.7393 4.99332C13.0165 5.30134 13.2266 5.66369 13.3562 6.05732zM12.5063 4.75346L13.1204 2.46213 11.4404 4.14213C11.8344 4.26953 12.1974 4.47774 12.5063 4.75346z"/></svg>

<svg xmlns="http://www.w3.org/2000/svg" width="28" height="28" fill="none">
  <path fill="#EC1E24" d="M28 0H0v28h28V0z"/>
  <path fill="#2B2F83" d="M21 0H0v14h21V0z"/>
  <path fill="#fff" d="M10.5 9.61a2.61 2.61 0 100-5.22 2.61 2.61 0 000 5.22zm.6-5.56l-.6-2.29-.62 2.3a3 3 0 011.23 0zm-1.55.09L7.87 2.46l.62 2.3c.31-.28.67-.49 1.06-.62zm-1.3.85l-2.29-.61 1.68 1.68a3 3 0 01.61-1.07zm-.7 1.4L5.25 7l2.3.61c-.08-.4-.08-.82 0-1.23zm.09 1.55L5.96 9.62l2.3-.61a3 3 0 01-.62-1.07zm.85 1.3l-.61 2.3 1.68-1.68a3 3 0 01-1.07-.62zm1.4.7l.6 2.3.62-2.3c-.4.09-.82.09-1.23 0zm1.55-.08l1.68 1.68-.62-2.3c-.3.28-.67.49-1.06.62zm1.3-.86l2.3.62-1.69-1.68c-.12.4-.33.75-.6 1.06zm.7-1.39l2.3-.61-2.3-.62c.08.4.08.83 0 1.23zm-.08-1.55l1.68-1.68-2.3.61c.28.31.49.67.62 1.07zm-.85-1.3l.61-2.3-1.68 1.68c.4.13.76.34 1.07.61z"/>
</svg>
